!!!!SEGMENT: pl-wtm--r-1227--001_lodwigowski-edward-stefan--nietakie-to-czasy-byly.krn
!!!cenid: 18xx:1941
!!!COM: Łodwigowski, Edward Stefan
!!!COM-rismID: pe30111147
!!!CDT: 1815/08/14-1895/11/12
!!!CNT: Polish
!!!OTL: Nietakie to czasy były
!!!PDT:
!!!AGN:
!!!SMS-siglum: PL-Wtm
!!!SMS-shelfmark: R 1227
!!!SMS-shelfwork: 001 W
!!!SMS-variant:
!!!SMS-altvar:
!!!NIFC-rismSourceID: 1001084023
!!!NIFC-rismChildID: 1001084023
!!!NIFC-islandoraID:
!!!URL-pdf-islandora:
!!!URL-scan:
!!!ONB-nifc: UWAGA: No. 73
!!!OMD: No 73. Maestoso.
!!!AIN: 2 forte
!!!key:
**kern	**fing	**kern	**fing	**dynam
*part2	*	*part1	*	*part1
*staff2	*	*staff1	*	*
*Iforte	*	*Iforte	*	*
*I"Fortepian	*	*I"Fortepian	*	*
*clefF4	*	*clefG2	*	*
*k[b-e-]	*	*k[b-e-]	*	*
*B-:	*	*B-:	*	*
*M3/4	*	*M3/4	*	*
*>[A,A]	*>[A,A]	*>[A,A]	*>[A,A]	*>[A,A]
=1	=1	=1	=1	=1
*>A	*>A	*>A	*>A	*>A
*clefG2	*	*	*	*
*^	*	*	*	*
*	*2\right	*below	*	*	*
!	!	!	!LO:TX:a:i:t=Nietakie to czasy były. P.L.P.	!	!
(<8d/L	2.B-\	4	(8f\L	1	p
8f/	.	.	8b-'\J)	4	.
8d/	.	.	8b-'\L	3	.
8f/	.	.	(8b-\	2	.
.	.	.	(16qqcc/LL	.	.
.	.	.	16qqb-/JJ	.	.
8d/	.	.	8a\)	.	.
8f/J)	.	.	8b-\J)	.	<
=2	=2	=2	=2	=2	=2
(<8e-/L	2.A\	.	(8.bn\L	.	.
8f/	.	.	.	.	.
.	.	.	16cc\Jk)	.	.
8e-/	.	.	4cc\	.	[
8f/	.	.	.	.	.
8e-/	.	.	4r	.	.
8f/J)	.	.	.	.	.
=3	=3	=3	=3	=3	=3
(<8e-/L	2.A\	.	(8f\L	1	.
8f/	.	.	8cc'\J)	4	.
8e-/	.	.	8cc'\L	3	.
8f/	.	.	(8cc\	2	.
.	.	.	16qqdd/LL	.	.
.	.	.	16qqcc/JJ	.	.
8e-/	.	.	8bn\	.	.
8f/J)	.	.	8cc\J)	.	.
=4	=4	=4	=4	=4	=4
(<8d/L	2.B-\	.	(8.cc#X\L	.	<
8f/	.	.	.	.	.
.	.	.	16dd\Jk)	.	.
8d/	.	.	4dd\	.	[
8f/	.	.	.	.	.
8d/	.	.	4r	.	.
8f/J)	.	.	.	.	.
!!LO:PB:g=original
=5	=5	=5	=5	=5	=5
(<8d/L	2B-\	4	(8b-\L	2	.
8f/	.	.	8dd'\J)	4	<
8d/	.	.	8dd'\L	3	.
8f/)	.	.	(8dd\	3	.
.	.	.	16qqee-/LL	.	.
.	.	.	16qqdd/JJ	.	.
8A-X/	4A-\	5	8cc#X\	.	[
8fJ 8B-/	.	.	8dd\J)	.	.
=6	=6	=6	=6	=6	=6
(<8G/L	2G\	5	(8.ff\L	.	>
8B-/	.	3	.	.	.
.	.	.	16een\Jk	.	.
8e-/	.	.	4ee-X\)	.	.
8B-/)	.	.	.	.	]
8G-X/	4G-\	5	4r	.	.
8e-J 8B-/	.	.	.	.	.
=7	=7	=7	=7	=7	=7
8F/L	8F\	5	(8.ee-\L	3	.
8e-J 8A/	8ryy	.	.	.	.
.	.	.	16cc\Jk)	1	.
*	*	*above	*	*	*
(8dL 8B-/	4ryy	2 1	(4.b-\	2	.
8F/	.	.	.	.	.
8d 8B-/	4ryy	.	.	.	.
8F/J)	.	.	8dd\)	.	.
*v	*v	*	*	*	*
=8	=8	=8	=8	=8
(8e-L 8A/	.	(16cc\LL	.	.
.	.	16b-\	.	.
8F/J)	.	16a\	.	.
.	.	16cc\JJ)	.	.
8r	.	(4cc^\	.	.
8e-L 8A 8F'/	.	.	.	.
8dJ 8B-'/	.	8b-\)	.	.
8r	.	8r	.	.
=:|!	=:|!	=:|!	=:|!	=:|!
*-	*-	*-	*-	*-
!!!system-decoration: {s1,s2}
!!!RDF**kern: < = below
!!!ENC: Marta Lawrence
!!!END: 2021-05-02
!!!ENC: Marcin Jachim
!!!END: 2021-04-17
!!!YEC: Copyright 2022 Narodowy Instytut Fryderyka Chopina (https://polishscores.org)
!!!YEM: License CC-BY-4.0 (https://creativecommons.org/licenses/by/4.0)
